X: 1
T: \AA Jenta \aa ja
R: hambo-polska
M: 3/4
L: 1/8
K: G
|: "G"B2 A>B G2 | B2 A>B G2 | "D7"A2 A>G F>G | A>G F>E D2 \
|  "G"B2 A>B G2 | B2 A>B G2 | "D7"A2 A>G F>G | A2 "G"G4 :|
|: "G"G>B d2 d2 | "C"c>d e>d c>B | "D7"A>B c2 c2 | "G"B>c d>c B>A \
| "Em"G>A B2 B2 | "Am"A>B c>B A>G | "D7"F>G A>D E>F | A2 "G"G4 :|
